X:2
T:Condensed Exercise II - Placing (One Finger)
C:Grossi Method
S:November 10, 1951
M:4/4
L:1/8
Q:1/4=80
K:C
%%text Place only one finger in advance
CDEF DEFG|EFGA FGAB|GABc ABcd|Bcde cdef|defg efga|gabc' abc'd'|
d'c'ba c'bag|bagf agfe|gfed fedc|edcB dcBA|cBAG BAGF|AGFE GFED|FEDC C4|]
